X: 38717
T: Streams Of Poulaphouca
R: reel
M: 4/4
K: Dmajor
d2 ed AFDF|AFDF ABAF|dAFD ABdB|AFDF GAGE|
d2 ed AFDF|AFDF ABAF|dAFD ABdB|AFDF ED D2:|
AFDF AF D2|GECE GE C2|AFDF AFDF|GECE FD D2|
(3AGF DF AF D2|(3GED CE GE C2|(3AGF DF (3AGF DF|

